packages/icons/svg/Fill/copy.svg

<svg fill="none" height="24" viewBox="0 0 24 24" width="24" xmlns="http://www.w3.org/2000/svg"><path clip-rule="evenodd" d="m9.00002 12.0001v1h-3.333c-.368 0-.667-.299-.667-.667v-6.66603c0-.368.299-.667.667-.667h6.66598c.368 0 .667.299.667.667v3.333h-1c-1.654 0-2.99998 1.34603-2.99998 3.00003zm8.99998-3.0001h-3v-3.333c0-1.471-1.196-2.667-2.667-2.667h-6.666c-1.471 0-2.667 1.196-2.667 2.667v6.666c0 1.471 1.196 2.667 2.667 2.667h3.333v3c0 1.654 1.346 3 3 3h6c1.654 0 3-1.346 3-3v-6c0-1.654-1.346-3-3-3z" fill="#6b7280" fill-rule="evenodd"/></svg>

<svg width="24" height="24" viewBox="0 0 24 24" fill="none" xmlns="http://www.w3.org/2000/svg">
<g id="Icon/Fill/copy">
<path id="Mask" fill-rule="evenodd" clip-rule="evenodd" d="M9 12V13H5.667C5.299 13 5 12.701 5 12.333V5.667C5 5.299 5.299 5 5.667 5H12.333C12.701 5 13 5.299 13 5.667V9H12C10.346 9 9 10.346 9 12ZM18 9H15V5.667C15 4.196 13.804 3 12.333 3H5.667C4.196 3 3 4.196 3 5.667V12.333C3 13.804 4.196 15 5.667 15H9V18C9 19.654 10.346 21 12 21H18C19.654 21 21 19.654 21 18V12C21 10.346 19.654 9 18 9Z" fill="#000000"/>
</g>
</svg>
